X: 19785
T: Jer Mac's
R: polka
M: 2/4
K: Gmajor
B/c/|:dg Bg|BG GF/G/|A/B/A/F/ D/F/A/F/|GE ED|
dg Bg|BG GF/G/|A/B/A/F/ D/F/A/F/|1 G2 GB/c/:|2 G2 GA||
|:BG GF/G/|AF FD/F/|A/B/A/F/ D/F/A/F/|GE ED|
BG GF/G/|AF FD/F/|A/B/A/F/ D/F/A/F/|1 G2 GA:|2 G2 GB/c/||

